Simply-Blue-Circles/scalable/emotes/face-laugh.svg

<svg xmlns="http://www.w3.org/2000/svg" width="48" height="48" viewBox="0 0 12.7 12.7"><path d="M6.32.05a6.29 6.29 0 0 0-6.3 6.3 6.29 6.29 0 0 0 6.3 6.28 6.29 6.29 0 0 0 6.29-6.3A6.29 6.29 0 0 0 6.3.06zM6.3.98a5.4 5.4 0 0 1 5.4 5.4 5.4 5.4 0 0 1-5.4 5.42A5.4 5.4 0 0 1 .9 6.4 5.4 5.4 0 0 1 6.3.98zM4.22 2.82c-.32-.02-.7.22-1.16.9-.08.13-.01.31.15.24.79-.95 1.22-.8 1.9-.02.15.05.2-.18.15-.22-.32-.44-.64-.88-1.04-.9zm4.37 0c-.31-.02-.68.22-1.15.9-.08.13-.02.31.15.24.78-.95 1.21-.8 1.9-.02.14.05.19-.18.15-.22-.32-.44-.64-.88-1.05-.9zm2.1 2.47c-2.56.74-5.2.66-8.76.03-.21 7.47 9.17 6.97 8.76-.03zm-.4.53a4.9 4.9 0 0 1-.15 1.66l-1.12.02-.13-1.4c.48-.06.94-.15 1.4-.28zm-7.96.02l1.4.2L3.6 7.5l-1.08-.02a5.48 5.48 0 0 1-.19-1.64zm1.44.2c.9.12 1.72.19 2.51.2l-.15 1.48-1.01.1-1.15-.27-.2-1.5zm5.07.08l-.19 1.43-1.15.27-1.01-.1-.18-1.47c.89.02 1.72-.02 2.53-.13zm1.3 1.36a3.8 3.8 0 0 1-1.26 1.95l.15-1.54 1.1-.4zm-7.62.02l1.07.4.15 1.53A3.84 3.84 0 0 1 2.52 7.5zm2.62.4l.97.23.17 2.2c-.9 0-1.8-.29-2.52-.88l.23-1.5 1.15-.05zm2.34 0l1.15.05.23 1.49c-.72.59-1.64.89-2.56.9l.2-2.2.98-.24z" fill="#2c89a0"/></svg>

<?xml version="1.0" encoding="UTF-8" standalone="no"?>
<svg
   xmlns:dc="http://purl.org/dc/elements/1.1/"
   xmlns:cc="http://creativecommons.org/ns#"
   xmlns:rdf="http://www.w3.org/1999/02/22-rdf-syntax-ns#"
   xmlns:svg="http://www.w3.org/2000/svg"
   xmlns="http://www.w3.org/2000/svg"
   xmlns:sodipodi="http://sodipodi.sourceforge.net/DTD/sodipodi-0.dtd"
   xmlns:inkscape="http://www.inkscape.org/namespaces/inkscape"
   width="48"
   height="48"
   viewBox="0 0 12.7 12.7"
   version="1.1"
   id="svg21"
   sodipodi:docname="face-laugh.svg"
   inkscape:version="0.92.4 (5da689c313, 2019-01-14)">
  <metadata
     id="metadata25">
    <rdf:RDF>
      <cc:Work
         rdf:about="">
        <dc:format>image/svg+xml</dc:format>
        <dc:type
           rdf:resource="http://purl.org/dc/dcmitype/StillImage" />
        <dc:title></dc:title>
      </cc:Work>
    </rdf:RDF>
  </metadata>
  <sodipodi:namedview
     pagecolor="#ffffff"
     bordercolor="#666666"
     borderopacity="1"
     objecttolerance="10"
     gridtolerance="10"
     guidetolerance="10"
     inkscape:pageopacity="0"
     inkscape:pageshadow="2"
     inkscape:window-width="1087"
     inkscape:window-height="480"
     id="namedview23"
     showgrid="false"
     inkscape:zoom="4.9166667"
     inkscape:cx="2.1355932"
     inkscape:cy="24"
     inkscape:window-x="0"
     inkscape:window-y="25"
     inkscape:window-maximized="0"
     inkscape:current-layer="svg21" />
  <defs
     id="defs17">
    <radialGradient
       id="a"
       gradientUnits="userSpaceOnUse"
       cy="10.05"
       cx="12.05"
       gradientTransform="matrix(2.4092 0 0 1.2046 -5.02 23.4)"
       r="9.55">
      <stop
         offset="0"
         id="stop2" />
      <stop
         stop-opacity="0"
         offset="1"
         id="stop4" />
    </radialGradient>
    <linearGradient
       id="b"
       y2="9.67"
       gradientUnits="userSpaceOnUse"
       y1="8.31"
       x2="19.35"
       x1="19.1">
      <stop
         stop-color="#edd400"
         offset="0"
         id="stop7" />
      <stop
         stop-color="#fce94f"
         stop-opacity="0"
         offset="1"
         id="stop9" />
    </linearGradient>
    <radialGradient
       id="c"
       gradientUnits="userSpaceOnUse"
       cy="10.05"
       cx="12.05"
       gradientTransform="matrix(2.4092 0 0 1.2046 -5.02 23.4)"
       r="9.55">
      <stop
         offset="0"
         id="stop12" />
      <stop
         stop-opacity="0"
         offset="1"
         id="stop14" />
    </radialGradient>
  </defs>
  <path
     d="m 6.32,0.05 a 6.29,6.29 0 0 0 -6.3,6.3 6.29,6.29 0 0 0 6.3,6.28 6.29,6.29 0 0 0 6.29,-6.3 A 6.29,6.29 0 0 0 6.3,0.06 Z M 6.3,0.98 A 5.4,5.4 0 0 1 11.7,6.38 5.4,5.4 0 0 1 6.3,11.8 5.4,5.4 0 0 1 0.9,6.4 5.4,5.4 0 0 1 6.3,0.98 Z M 4.22,2.82 C 3.9,2.8 3.52,3.04 3.06,3.72 2.98,3.85 3.05,4.03 3.21,3.96 4,3.01 4.43,3.16 5.11,3.94 5.26,3.99 5.31,3.76 5.26,3.72 4.94,3.28 4.62,2.84 4.22,2.82 Z m 4.37,0 C 8.28,2.8 7.91,3.04 7.44,3.72 7.36,3.85 7.42,4.03 7.59,3.96 8.37,3.01 8.8,3.16 9.49,3.94 9.63,3.99 9.68,3.76 9.64,3.72 9.32,3.28 9,2.84 8.59,2.82 Z m 2.1,2.47 C 8.13,6.03 5.49,5.95 1.93,5.32 1.72,12.79 11.1,12.29 10.69,5.29 Z m -0.4,0.53 A 4.9,4.9 0 0 1 10.14,7.48 L 9.02,7.5 8.89,6.1 C 9.37,6.04 9.83,5.95 10.29,5.82 Z M 2.33,5.84 3.73,6.04 3.6,7.5 2.52,7.48 A 5.48,5.48 0 0 1 2.33,5.84 Z m 1.44,0.2 c 0.9,0.12 1.72,0.19 2.51,0.2 L 6.13,7.72 5.12,7.82 3.97,7.55 3.77,6.05 Z M 8.84,6.12 8.65,7.55 7.5,7.82 6.49,7.72 6.31,6.25 C 7.2,6.27 8.03,6.23 8.84,6.12 Z m 1.3,1.36 A 3.8,3.8 0 0 1 8.88,9.43 l 0.15,-1.54 1.1,-0.4 z M 2.52,7.5 3.59,7.9 3.74,9.43 A 3.84,3.84 0 0 1 2.52,7.5 Z m 2.62,0.4 0.97,0.23 0.17,2.2 c -0.9,0 -1.8,-0.29 -2.52,-0.88 l 0.23,-1.5 z m 2.34,0 1.15,0.05 0.23,1.49 c -0.72,0.59 -1.64,0.89 -2.56,0.9 l 0.2,-2.2 z"
     id="path19"
     inkscape:connector-curvature="0"
     style="fill:#2c89a0" />
</svg>
